!!!COM: Palestrina, Giovanni Perluigi da
!!!OPR: Missa Beatus Laurentius
!!!OMD: Credo
!!!OTL: Et in Spiritum
**kern	**kern	**kern	**kern	**kern
*Ibass	*Itenor	*Itenor	*Icalto	*Icant
!Bassus	!Tenor 2	!Tenor 1	!Altus	!Cantus
*clefF4	*clefGv2	*clefGv2	*clefG2	*clefG2
*k[]	*k[]	*k[]	*k[]	*k[]
*G:mix	*G:mix	*G:mix	*G:mix	*G:mix
*M3/2	*M3/2	*M3/2	*M3/2	*M3/2
=105	=105	=105	=105	=105
1c	1g	1e	1r	1cc
2F	2a	2f	2r	2cc
=106	=106	=106	=106	=106
2.A	2.e	2.c	1r	2.cc
4A	4f#	4c	.	4cc
2G	2g	2d	2r	2b
=107	=107	=107	=107	=107
1F	1c	1f	1r	1a
2A	2c	2e	2r	2cc
=108	=108	=108	=108	=108
2.G	2.d	2.g	1r	2.b
4G	4d	4g	.	4b
2G	2d	2g	2r	2b
=109	=109	=109	=109	=109
2.F	2.f	2.c	2.a	2.cc
4F	4f	4c	4a	4cc
2F	2f	2A	2a	2cc
=110	=110	=110	=110	=110
2D	2f	2A	2a	2dd
1G	1d	1B	1g	1dd
=111	=111	=111	=111	=111
2C	2g	2c	2e	2ee
2r	2e	2c	2cc	2gg
2r	2a	2A	2cc	2ff
=112	=112	=112	=112	=112
1r	1g	1c	1cc	1ee
2r	2g	2G	2b	2dd
=113	=113	=113	=113	=113
1r	1e	1A	1a	1cc
2r	2e	2G#	2b	2b
=114	=114	=114	=114	=114
1r	1e	1A	1cc	1a
2r	2e	2c	2cc	2g
=115	=115	=115	=115	=115
1r	2g	2G	2b	2dd
.	1f#	1d	1a	1dd
2r	.	.	.	.
=116	=116	=116	=116	=116
2r	2g	2G	2b	2dd
2G	2d	2g	2b	2r
2G	2d	2g	2b	2r
=117	=117	=117	=117	=117
1E	1e	1g	1b	1r
2G	2d	2g	2b	2r
=118	=118	=118	=118	=118
2A	2c	2e	2a	1r
2.F	2.A	2.d	2.a	.
.	.	.	.	2r
4F	4A	4d	4a	.
=119	=119	=119	=119	=119
1E	1B	1e	1g#	1r
2r	2r	2r	2r	2r
=120	=120	=120	=120	=120
2.A	2.c#	2.e	2.a	2.ee
4A	4c#	4e	4a	4ee
2A	2c#	2e	2a	2ee
=121	=121	=121	=121	=121
2A	2c#	2e	2a	2ee
1D	1d	1f	1a	1dd
=122	=122	=122	=122	=122
1A	1c#	1e	1a	1ee
2D	2d	2d	2a	2ff#
=123	=123	=123	=123	=123
2.G	2.B	2.d	2.d	2gg
.	.	.	.	2g
4G	4B	4d	4d	.
2G	2B	2d	2g	[2b
=124	=124	=124	=124	=124
2G	2G	2d	2g	4b]
.	.	.	.	4cc
1D	1A	1d	1f#	1dd
=125	=125	=125	=125	=125
2G	2G	2d	2g	2b
2r	2g	2G	2b	2dd
2r	2f#	2d	2a	2dd
=126	=126	=126	=126	=126
1r	1g	1G	1b	1dd
2r	2g	2G	2b	2dd
=127	=127	=127	=127	=127
1r	1g	1c	1cc	1ee
2r	2f#	2d	2a	2dd
=128	=128	=128	=128	=128
1r	2g	2G	2b-	2dd
.	1e	1A	1a	1cc#
2r	.	.	.	.
*-	*-	*-	*-	*-
!!!CDT: 1525/^1526/-1594/2/2
!!!OCY: Italia
!!!AGN: Mass (Paraphrase)
!!!AST: renaissance, vocal
!!!ASW: Antiphon
!!!PWK: Masses, Book 8
!!!RNB: Cadence finals: C
!!!YOR: Le Opere Complete, v. 24, p. 194
!!!YOO: Rome, Italy: Fratelli Scalera
!!!END: 1992//
!!!EED: John Miller
!!!YEC: Copyright 2000, John Miller
!!!YEN: United States of America
!!!YEM: Rights to all derivative electronic formats reserved.
!!!YEM: Refer to licensing agreement for further details.
!!!YEM: This file must be accompanied by the licensing agreement.
!!!YEM: A copy of the licensing agreement may be found at http://www.music-cog.ohio-state.edu/HumdrumDatabases/Palestrina/license.txt
!!!EMD: converted to Humdrum by Bret Aarden
